X:500
T: Top of the Maol
T: Groves of Gneeveguilla
S: B.Breathnach: "Ceol Rince na hEireann" II/119 (gan ainm)
Z: B.Black
L: 1/8
M: 2/4
R: polka
K: Edor
E2 E2|BA FE|D2 D>E|FD FA|
E2 E2|BA FA|B/c/d/B/ AF|E2 E2 :|
Be e>f|ed d2|Bd d>e|dB BA|
Be e>f|ed d2|B/c/d/B/ AF|E2 E2 :|
